material/.icons/material/arrow-collapse-up.svg

<svg xmlns="http://www.w3.org/2000/svg" viewBox="0 0 24 24"><path d="M4.08 11.92L12 4l7.92 7.92-1.42 1.41-5.5-5.5V22h-2V7.83l-5.5 5.5-1.42-1.41M12 4h10V2H2v2h10z"/></svg>

<?xml version="1.0" encoding="UTF-8"?><!DOCTYPE svg PUBLIC "-//W3C//DTD SVG 1.1//EN" "http://www.w3.org/Graphics/SVG/1.1/DTD/svg11.dtd"><svg xmlns="http://www.w3.org/2000/svg" xmlns:xlink="http://www.w3.org/1999/xlink" version="1.1" id="mdi-arrow-collapse-up" width="24" height="24" viewBox="0 0 24 24"><path d="M4.08,11.92L12,4L19.92,11.92L18.5,13.33L13,7.83V22H11V7.83L5.5,13.33L4.08,11.92M12,4H22V2H2V4H12Z" /></svg>
